icons/line/view-list.svg

<svg width="24" height="24" fill="none" xmlns="http://www.w3.org/2000/svg"><path d="M9 6h12M9 14h12m0-4H9m0 8h12M3 6h2m-2 8h2m0-4H3m0 8h2" stroke="currentColor" stroke-width="2" stroke-linecap="round" stroke-linejoin="round"/></svg>

<svg width="24" height="24" viewBox="0 0 24 24" fill="none" xmlns="http://www.w3.org/2000/svg">
<path d="M9 6H21M9 14H21M21 10H9M9 18H21M3 6H5M3 14H5M5 10H3M3 18H5" stroke="currentColor" stroke-width="2" stroke-linecap="round" stroke-linejoin="round"/>
</svg>
